assets/svg/1F3B9.svg

<svg xmlns="http://www.w3.org/2000/svg" viewBox="0 0 64 64" enable-background="new 0 0 64 64"><g fill-rule="evenodd"><path fill="#25333a" d="M63.867,54.46c0,2.675-1.263,4.845-2.823,4.845H2.823
		C1.265,59.305,0,57.135,0,54.46V4.841C0,2.17,1.265,0,2.823,0h58.221c1.561,0,2.823,2.17,2.823,4.841V54.46z"/><g fill="#fff"><path d="m16.817 49.33c0 2.575-1.519 4.666-3.391 4.666h-6.709c-1.874 0-3.393-2.091-3.393-4.666v-30.518c0-2.579 1.519-4.666 3.393-4.666h6.709c1.872 0 3.391 2.087 3.391 4.666v30.518"/><path d="m31.523 49.33c0 2.575-1.519 4.666-3.395 4.666h-6.705c-1.874 0-3.395-2.091-3.395-4.666v-30.518c0-2.579 1.521-4.666 3.395-4.666h6.705c1.876 0 3.395 2.087 3.395 4.666v30.518"/><path d="m46.1 49.33c0 2.575-1.52 4.666-3.394 4.666h-6.707c-1.874 0-3.395-2.091-3.395-4.666v-30.518c0-2.579 1.521-4.666 3.395-4.666h6.707c1.874 0 3.394 2.087 3.394 4.666v30.518"/><path d="m60.802 49.33c0 2.575-1.521 4.666-3.396 4.666h-6.707c-1.874 0-3.393-2.091-3.393-4.666v-30.518c0-2.579 1.519-4.666 3.393-4.666h6.707c1.874 0 3.396 2.087 3.396 4.666v30.518"/></g><g fill="#25333a"><path d="m20.855 39.702c0 1.872-.763 3.389-1.706 3.389h-3.37c-.943 0-1.704-1.517-1.704-3.389v-22.17c0-1.87.761-3.387 1.704-3.387h3.37c.943 0 1.706 1.517 1.706 3.387v22.17"/><path d="m35.479 39.702c0 1.872-.762 3.389-1.704 3.389h-3.37c-.941 0-1.705-1.517-1.705-3.389v-22.17c0-1.87.764-3.387 1.705-3.387h3.37c.942 0 1.704 1.517 1.704 3.387v22.17"/><path d="m50.05 39.01c0 1.874-.766 3.389-1.706 3.389h-3.37c-.942 0-1.706-1.515-1.706-3.389v-22.17c0-1.872.764-3.391 1.706-3.391h3.37c.94 0 1.706 1.519 1.706 3.391v22.17"/></g></g></svg>

<?xml version="1.0" encoding="utf-8"?>
<!-- Generator: Adobe Illustrator 16.0.0, SVG Export Plug-In . SVG Version: 6.00 Build 0)  -->
<!DOCTYPE svg PUBLIC "-//W3C//DTD SVG 1.1//EN" "http://www.w3.org/Graphics/SVG/1.1/DTD/svg11.dtd">
<svg version="1.1" id="Layer_1" xmlns="http://www.w3.org/2000/svg" xmlns:xlink="http://www.w3.org/1999/xlink" x="0px" y="0px"
	 width="64px" height="64px" viewBox="0 0 64 64" enable-background="new 0 0 64 64" xml:space="preserve">
<g>
	<path fill-rule="evenodd" clip-rule="evenodd" fill="#25333A" d="M63.867,54.46c0,2.675-1.263,4.845-2.823,4.845H2.823
		C1.265,59.305,0,57.135,0,54.46V4.841C0,2.17,1.265,0,2.823,0h58.221c1.561,0,2.823,2.17,2.823,4.841V54.46z"/>
	<path fill-rule="evenodd" clip-rule="evenodd" fill="#FFFFFF" d="M16.817,49.328c0,2.575-1.519,4.666-3.391,4.666H6.717
		c-1.874,0-3.393-2.091-3.393-4.666V18.81c0-2.579,1.519-4.666,3.393-4.666h6.709c1.872,0,3.391,2.087,3.391,4.666V49.328z"/>
	<path fill-rule="evenodd" clip-rule="evenodd" fill="#FFFFFF" d="M31.523,49.328c0,2.575-1.519,4.666-3.395,4.666h-6.705
		c-1.874,0-3.395-2.091-3.395-4.666V18.81c0-2.579,1.521-4.666,3.395-4.666h6.705c1.876,0,3.395,2.087,3.395,4.666V49.328z"/>
	<path fill-rule="evenodd" clip-rule="evenodd" fill="#FFFFFF" d="M46.096,49.328c0,2.575-1.52,4.666-3.394,4.666h-6.707
		c-1.874,0-3.395-2.091-3.395-4.666V18.81c0-2.579,1.521-4.666,3.395-4.666h6.707c1.874,0,3.394,2.087,3.394,4.666V49.328z"/>
	<path fill-rule="evenodd" clip-rule="evenodd" fill="#FFFFFF" d="M60.802,49.328c0,2.575-1.521,4.666-3.396,4.666h-6.707
		c-1.874,0-3.393-2.091-3.393-4.666V18.81c0-2.579,1.519-4.666,3.393-4.666h6.707c1.874,0,3.396,2.087,3.396,4.666V49.328z"/>
	<path fill-rule="evenodd" clip-rule="evenodd" fill="#25333A" d="M20.855,39.702c0,1.872-0.763,3.389-1.706,3.389h-3.37
		c-0.943,0-1.704-1.517-1.704-3.389V17.531c0-1.87,0.761-3.387,1.704-3.387h3.37c0.943,0,1.706,1.517,1.706,3.387V39.702z"/>
	<path fill-rule="evenodd" clip-rule="evenodd" fill="#25333A" d="M35.479,39.702c0,1.872-0.762,3.389-1.704,3.389h-3.37
		c-0.941,0-1.705-1.517-1.705-3.389V17.531c0-1.87,0.764-3.387,1.705-3.387h3.37c0.942,0,1.704,1.517,1.704,3.387V39.702z"/>
	<path fill-rule="evenodd" clip-rule="evenodd" fill="#25333A" d="M50.053,39.01c0,1.874-0.766,3.389-1.706,3.389h-3.37
		c-0.942,0-1.706-1.515-1.706-3.389V16.843c0-1.872,0.764-3.391,1.706-3.391h3.37c0.94,0,1.706,1.519,1.706,3.391V39.01z"/>
</g>
</svg>
